X: 3443
T: SCHOTTISCHE
%R: shottish
B: James Kerr "Merry Melodies" v.3 p.51 #443
Z: 2016 John Chambers <jc:trillian.mit.edu>
M: C
L: 1/8
K: D
(ag) |\
f2 (3(fed) e2 (3(edc) | d2A2 Adfa | b2c2 cegc' | d'2a2 a2(ag) |\
f2 (3(fed) e2 (3(edc) | d2A2 Adfa | b2B2 BAdf | e2d2 d2 :|
|: (dc) |\
BABc dcde | f2A2 A2(BA) | GFGA BEFG | A2F2 F2(dc) |\
BABc dcde | f2A2 A2(ba) | gfed dcfe | d2[d2F2] [d2F2] :|

%%sep 1 1 500
%%sep 1 1 500

